X:1
T:I Will If I Can
M:6/8
L:1/8
K:G Major
D| "G"GBd gdB| ded d2B| GBd gdB| "D7"ABA A2D|
GBd gdB| def gfg| "C"edB "D7"cBA| "G"BGG G2:|
d| "G"g2d edB| ded def| g2d edB| "D7"ABA A2d|
"G"g2d edB| "D7"def "C"gfg| edB "D7"cBA| "G"BGG G2:|!
------=_NextPart_000_0027_01C4719C.8CDAC180--
